icons/solid/sound-up.svg

<svg width="24" height="24" viewBox="0 0 24 24" fill="none" xmlns="http://www.w3.org/2000/svg">
<path fill-rule="evenodd" clip-rule="evenodd" d="M5.08013 9.00001H5C3.89543 9.00001 3 9.89544 3 11V13C3 14.1046 3.89543 15 5 15H5.08013C5.66398 15 6.21868 15.2551 6.59864 15.6984L10.2407 19.9475C10.8449 20.6524 12 20.2252 12 19.2968V4.70327C12 3.77486 10.8449 3.34758 10.2407 4.05247L6.59864 8.30159C6.21868 8.74488 5.66398 9.00001 5.08013 9.00001ZM18.6363 4.27498C18.2359 3.89461 17.603 3.91087 17.2226 4.31129C16.8422 4.71171 16.8585 5.34467 17.2589 5.72504C20.9137 9.19678 20.9137 14.8032 17.2589 18.275C16.8585 18.6553 16.8422 19.2883 17.2226 19.6887C17.603 20.0891 18.2359 20.1054 18.6363 19.725C23.1212 15.4648 23.1212 8.53523 18.6363 4.27498ZM15.6887 7.07498C15.2883 6.69461 14.6553 6.71087 14.275 7.11129C13.8946 7.51171 13.9109 8.14467 14.3113 8.52504C16.3381 10.4504 16.3381 13.5496 14.3113 15.475C13.9109 15.8553 13.8946 16.4883 14.275 16.8887C14.6553 17.2891 15.2883 17.3054 15.6887 16.925C18.5457 14.2112 18.5457 9.78883 15.6887 7.07498Z" fill="currentColor"/>
</svg>

<svg width="24" height="24" fill="none" xmlns="http://www.w3.org/2000/svg"><path fill-rule="evenodd" clip-rule="evenodd" d="M5.08 9H5a2 2 0 00-2 2v2a2 2 0 002 2h.08a2 2 0 011.519.698l3.642 4.25c.604.704 1.759.277 1.759-.651V4.703c0-.928-1.155-1.355-1.76-.65L6.6 8.301A2 2 0 015.08 9zm13.556-4.725a1 1 0 10-1.377 1.45c3.655 3.472 3.655 9.078 0 12.55a1 1 0 101.377 1.45c4.485-4.26 4.485-11.19 0-15.45zm-2.947 2.8a1 1 0 10-1.378 1.45c2.027 1.925 2.027 5.025 0 6.95a1 1 0 101.378 1.45c2.857-2.714 2.857-7.136 0-9.85z" fill="currentColor"/></svg>
